assets/img/work/evo/evo-logo.svg

<?xml version="1.0" encoding="UTF-8" standalone="no"?>
<svg width="94px" height="38px" viewBox="0 0 94 38" version="1.1" xmlns="http://www.w3.org/2000/svg" xmlns:xlink="http://www.w3.org/1999/xlink">
    <!-- Generator: Sketch 41.2 (35397) - http://www.bohemiancoding.com/sketch -->
    <title>Evo_magazine_logo</title>
    <desc>Created with Sketch.</desc>
    <defs></defs>
    <g id="Featured-Case-studies" stroke="none" stroke-width="1" fill="none" fill-rule="evenodd">
        <g id="Work/EvoLS" transform="translate(-118.000000, -620.000000)" fill="#FFFFFF">
            <g id="Evo_magazine_logo" transform="translate(118.000000, 620.000000)">
                <path d="M9.50857322,37.3321835 C5.24147541,36.6242435 2.76950719,35.1566796 1.45567692,32.5512843 C0.557635556,30.7703815 0.397500762,28.688632 0.396695967,18.7810382 C0.395305282,1.26671989 0.538616652,1.09376128 15.0504398,1.09534246 C28.6530768,1.09682124 29.6135894,2.05179003 29.3079542,15.2705261 L29.1388765,22.5838289 L19.6082745,22.7505388 L10.0776788,22.9172429 L10.0776788,25.048062 C10.0776788,27.9762434 12.2785665,30.1317206 15.3449302,30.2066695 C20.4155155,30.3306075 23.197085,29.9889984 26.0977447,28.8860935 C27.7704039,28.2501281 29.2069686,27.7296595 29.290165,27.7294933 C29.3733679,27.729322 29.4414599,29.6176405 29.4414599,31.9257483 C29.4414599,36.6750173 29.7741491,36.3747226 23.3902679,37.3870407 C18.7949877,38.1157306 14.1200394,38.0972575 9.50857322,37.3321835 Z M19.1544605,12.7168526 C19.1544605,10.7858318 18.8276688,8.87902461 18.4282783,8.47949841 C17.3387088,7.38950383 12.4887917,7.57389915 11.1842842,8.75492047 C10.3751695,9.48743231 10.0776788,10.6265177 10.0776788,12.9922747 L10.0776788,16.2277989 L14.6160697,16.2277989 L19.1544605,16.2277989 L19.1544605,12.7168526 Z M35.5080783,22.1504589 C32.7365784,13.7325089 30.1146609,5.68738722 29.681572,4.27241342 L28.8942061,1.69973633 L34.5854425,1.69973633 L40.2766725,1.69973633 L40.802654,3.6670818 C41.0919487,4.74911763 42.3955935,9.78854108 43.6995666,14.8657958 C45.0035334,19.9430505 46.2228035,24.0971712 46.409078,24.0971712 C46.5952946,24.0971712 47.8983535,19.1415333 49.3048124,13.0846463 C50.7112649,7.02776058 51.9568421,1.9772321 52.0727712,1.86125307 L62.5068774,2.00240485 L57.248791,19.5571476 L52.3048546,37.4261717 L40.5471608,37.4558265 L35.5080783,22.1504589 Z M66.9690059,36.4899038 C60.9297634,35.1124882 62.1177753,19.4527713 62.1177753,19.4527713 C62.1177753,5.9239282 62.3806084,4.69109871 65.6792615,2.74782122 C69.7332497,0.359534295 82.5623955,-0.173377705 88.3826308,1.80474514 C92.9437362,3.3549221 93.2586426,4.37600207 93.4501644,18.2376382 C93.6441521,32.2798974 93.2994618,33.6589483 89.0455433,35.8596835 C87.0168366,36.9092216 84.5664368,37.1342563 77.9731416,37.2500533 C72.359056,37.3486523 71.4669252,37.5157782 66.9690059,36.4899038 Z M81.7409063,29.1992876 C82.5228575,28.4170312 82.6918322,26.5950117 82.6918322,18.9428982 C82.6918322,10.013447 82.6375053,9.59970814 81.3469304,8.69542729 C79.6204852,7.4857559 76.0812307,7.4857559 74.3547855,8.69542729 C73.0659232,9.59852434 73.0099416,10.0186459 73.0099416,18.7871427 C73.0099416,29.5749273 73.2577153,30.1505313 77.9014312,30.1505313 C79.7205566,30.1505313 81.1420684,29.7983595 81.7409063,29.1992876 Z" id="path2223"></path>
            </g>
        </g>
    </g>
</svg>

<svg width="94" height="38" viewBox="0 0 94 38" xmlns="http://www.w3.org/2000/svg">
    <title>Evo magazine logo</title>
    <path d="M9.51 37.332c-4.27-.708-6.74-2.175-8.054-4.78C.558 30.77.398 28.688.396 18.78.397 1.266.54 1.093 15.05 1.094c13.603.002 14.564.957 14.258 14.176l-.17 7.314-9.53.167-9.53.167v2.13c0 2.93 2.2 5.085 5.267 5.16 5.07.124 7.852-.218 10.753-1.32 1.672-.637 3.11-1.157 3.192-1.158.083 0 .15 1.888.15 4.196 0 4.75.334 4.45-6.05 5.46-4.595.73-9.27.71-13.88-.054zm9.644-24.615c0-1.93-.326-3.838-.726-4.238-1.09-1.09-5.94-.906-7.244.275-.81.732-1.106 1.872-1.106 4.237v3.236h9.076v-3.51zm16.354 9.433c-2.77-8.417-5.393-16.463-5.826-17.878L28.894 1.7h11.383l.526 1.967c.29 1.082 1.593 6.122 2.897 11.2 1.304 5.076 2.523 9.23 2.71 9.23.185 0 1.488-4.955 2.895-11.012C50.71 7.028 51.957 1.977 52.073 1.86l10.434.142-5.258 17.555-4.945 17.87-11.758.03-5.04-15.307zm31.46 14.34c-6.038-1.378-4.85-17.037-4.85-17.037 0-13.53.263-14.762 3.56-16.705C69.734.36 82.563-.172 88.384 1.805c4.56 1.55 4.876 2.57 5.067 16.433.194 14.042-.15 15.42-4.404 17.622-2.03 1.05-4.48 1.274-11.073 1.39-5.614.1-6.506.266-11.004-.76zm14.773-7.29c.783-.783.952-2.605.952-10.257 0-8.93-.054-9.343-1.345-10.248-1.727-1.21-5.266-1.21-6.992 0-1.29.904-1.345 1.324-1.345 10.092 0 10.788.248 11.364 4.89 11.364 1.82 0 3.242-.352 3.84-.95z" fill="#FFF" fill-rule="evenodd"/>
</svg>
